assets/light/copy-light.svg

<svg id="Flat" xmlns="http://www.w3.org/2000/svg" viewBox="0 0 255.99316 255.99316">
  <path d="M216,33.99316H88a6.0003,6.0003,0,0,0-6,6v42.001H39.999a6.0003,6.0003,0,0,0-6,6v128a6.0003,6.0003,0,0,0,6,6h128a6.00029,6.00029,0,0,0,6-6v-42.001H216a6.00029,6.00029,0,0,0,6-6v-128A6.0003,6.0003,0,0,0,216,33.99316Zm-54.001,176.001h-116v-116h116ZM210,161.99316H173.999v-73.999a6.00029,6.00029,0,0,0-6-6H94v-36.001H210Z"/>
</svg>

<svg xmlns="http://www.w3.org/2000/svg" viewBox="0 0 256 256"><path d="M216,34H88a6,6,0,0,0-6,6V82H40a6,6,0,0,0-6,6V216a6,6,0,0,0,6,6H168a6,6,0,0,0,6-6V174h42a6,6,0,0,0,6-6V40A6,6,0,0,0,216,34ZM162,210H46V94H162Zm48-48H174V88a6,6,0,0,0-6-6H94V46H210Z"/></svg>
